public/icon/cup.svg

<svg width="23" height="18" viewBox="0 0 23 18" fill="none" xmlns="http://www.w3.org/2000/svg">
<path d="M8.16232 10.3817C8.19457 10.3817 8.25614 10.3817 8.28839 10.3817C8.50828 10.6016 8.69592 10.8186 8.91288 11.0062C9.22659 11.2877 9.38198 11.663 9.38198 12.0705V12.1321C9.38198 12.4135 9.28816 12.695 9.13277 12.9442L6.75502 16.3217C6.56738 16.6032 6.53513 16.9784 6.69345 17.2922C6.85177 17.6059 7.16255 17.7935 7.53783 17.7935H15.0434C15.3864 17.7935 15.7001 17.6059 15.8878 17.2922C16.0432 16.9784 16.0139 16.6032 15.8262 16.3217L13.4485 12.9442C13.2931 12.695 13.1993 12.4135 13.1993 12.1321V12.0705C13.1993 11.663 13.3547 11.2877 13.6684 11.0062C13.8883 10.8186 14.1052 10.5987 14.2929 10.3817C14.3251 10.3817 14.3867 10.3817 14.4482 10.3817C19.2624 9.60186 22.5461 7.03648 22.5461 4.0665C22.5461 2.15785 21.0127 0.62742 19.107 0.62742C18.764 0.62742 18.4502 0.688989 18.1365 0.782808C18.0427 0.34596 17.6674 0 17.1983 0H5.31548C4.84638 0 4.4711 0.343028 4.40953 0.782808C4.09582 0.688989 3.78504 0.62742 3.43908 0.62742C1.53043 0.62742 0 2.16079 0 4.0665C0 7.03648 3.28369 9.60186 8.16232 10.3817ZM13.1963 15.9494H9.31747L10.6632 14.0407C11.0707 13.4778 11.2584 12.8211 11.2584 12.1321C11.2584 12.8211 11.4783 13.4778 11.8535 14.0407L13.1963 15.9494ZM17.9489 3.00223C18.2304 2.6592 18.6672 2.47156 19.107 2.47156C19.9836 2.47156 20.6697 3.16055 20.6697 4.03425C20.6697 5.66144 18.7933 7.22412 15.9787 8.0685C16.9169 6.53513 17.6059 4.75256 17.9489 3.00223ZM16.1986 1.87639C15.8849 4.62942 14.3222 7.81929 12.3197 9.63118C11.6307 10.2557 11.2261 11.1323 11.2261 12.0705C11.2261 11.1323 10.8186 10.2557 10.1325 9.63118C8.16232 7.81929 6.5967 4.62942 6.31524 1.87639H16.1986ZM3.43908 2.50088C3.87593 2.50088 4.28346 2.68852 4.56492 3.00223C4.87863 4.72324 5.59693 6.53513 6.53513 8.10075C3.75279 7.25637 1.87639 5.69369 1.87639 4.0665C1.87639 3.18987 2.5947 2.50088 3.43908 2.50088Z" fill="white" fill-opacity="0.9"/>
</svg>

<svg width="23" height="18" fill="none" xmlns="http://www.w3.org/2000/svg"><path d="M8.162 10.382h.126c.22.22.408.437.625.624.314.282.469.657.469 1.064v.062c0 .282-.094.563-.25.812l-2.377 3.378a.973.973 0 0 0-.062.97c.159.314.47.502.845.502h7.505a.986.986 0 0 0 .845-.502.98.98 0 0 0-.062-.97l-2.378-3.378c-.155-.249-.249-.53-.249-.812v-.062c0-.407.156-.782.47-1.064.22-.187.436-.407.624-.624h.155c4.814-.78 8.098-3.346 8.098-6.316A3.43 3.43 0 0 0 19.107.627c-.343 0-.657.062-.97.156-.094-.437-.47-.783-.939-.783H5.315a.91.91 0 0 0-.905.783 3.312 3.312 0 0 0-.97-.156A3.43 3.43 0 0 0 0 4.067c0 2.97 3.284 5.535 8.162 6.315Zm5.034 5.567H9.317l1.346-1.908c.408-.563.595-1.22.595-1.909 0 .69.22 1.346.596 1.909l1.342 1.908ZM17.95 3.002c.281-.343.718-.53 1.158-.53.877 0 1.563.689 1.563 1.562 0 1.627-1.877 3.19-4.691 4.035a15.67 15.67 0 0 0 1.97-5.067Zm-1.75-1.126c-.314 2.753-1.877 5.943-3.88 7.755a3.289 3.289 0 0 0-1.093 2.44 3.3 3.3 0 0 0-1.094-2.44C8.162 7.82 6.598 4.63 6.316 1.876H16.2Zm-12.76.625c.437 0 .844.188 1.126.501.314 1.721 1.032 3.533 1.97 5.099-2.782-.845-4.659-2.407-4.659-4.035 0-.876.719-1.565 1.563-1.565Z" fill="#fff" fill-opacity=".9"/></svg>
